X: 9
T: Fisherman's Island, The
C: Ed Reavy
Z: Adam
S: https://thesession.org/tunes/181#setting53763
R: reel
M: 4/4
L: 1/8
K: Dmaj
|:D2FA ~d2cd|BA^GB AFDF|GE{G}ED EFGA|(3Bcd ed (3c{d}cA Ag|
fd (3ddd edcA|~B2dB AGFD|EFGA (3Bcd ed|1 (3c{d}cA GE {G}EDCE:|2 (3c{d}cA GE {G}EDDg||
|: fd (3ddd AF (3FFF | DFAd ~f3a|g{ag}e^de bgec|dfed cAGE|
DF (3FFF Adfd|~B2gf edcB|Adfa gbed|1 (3c{d}cA GE {G}EDDg:|2 (3c{d}cA GE {G}EDCE||

%-------------------- TUNE SEPARATOR --------------------%

